!!!!SEGMENT: pl-kk--kk-i-2--010_anonim--sanguine-proprio.krn
!!!cenid: 16xx:1615
!!!COM: Anonim
!!!COM-rismid: pe30004985
!!!CDT:
!!!CNT:
!!!OTL: Sanguine proprio
!!!PDT:
!!!AGN: Sacred
!!!SMS-siglum: PL-Kk
!!!SMS-shelfmark: Kk.I.2
!!!SMS-shelfwork: 010 W
!!!NIFC-rismid: 300258026
!!!URL-scan: http://repozytorium.nifc.pl/skany/pl-kk-nut--i-2
!!!ONB-nifc: skany: C: 0025-0026; A: 0125-0126; T: 0229-0230; B: 0327-0328;
!!!AIN: 3 empty 1 tenor
!!!key:
**kern	**text	**kern	**text	**kern	**text	**kern	**text
*part4	*part4	*part3	*part3	*part2	*part2	*part1	*part1
*staff4	*staff4	*staff3	*staff3	*staff2	*staff2	*staff1	*staff1
*Iempty	*	*Itenor	*	*Iempty	*	*Iempty	*
*I"BASSVS	*	*I"TENOR	*	*I"ALTVS	*	*I"DISCANTVS	*
*I'B	*	*I'T	*	*I'A	*	*I'S	*
*clefF4	*	*clefC4	*	*clefC4	*	*clefC2	*
*k[]	*	*k[]	*	*k[]	*	*k[]	*
*g:	*	*g:	*	*g:	*	*g:	*
*M2/1	*	*M2/1	*	*M2/1	*	*M2/1	*
*met(c|)	*	*met(c|)	*	*met(c|)	*	*met(c|)	*
=1	=1	=1	=1	=1	=1	=1	=1
!!LO:TX:t=P:problem: brak kresek taktowych dla S, A, T oraz B	!	!	!	!	!	!	!
0r	.	0r	.	0r	.	1d	SAn-
!LO:TX:t=P:problem= kreska pseudotaktowa	!	!	!	!	!	!	!
*	*	*	*	*	*	*2\right	*
.	.	.	.	.	.	2a\	-gui-
.	.	.	.	.	.	2a\	-ne
=2	=2	=2	=2	=2	=2	=2	=2
1AA	San-	0r	.	0r	.	2.cc\	pro-
*	*	*	*	*	*	*4\right	*
.	.	.	.	.	.	4b\	.
2D/	-gui-	.	.	.	.	4a\	.
.	.	.	.	.	.	4g\	.
2D/	-ne	.	.	.	.	1a	.
=3	=3	=3	=3	=3	=3	=3	=3
2.F\	pro-	0r	.	1r	.	.	.
.	.	.	.	.	.	2.f\	.
4E\	.	.	.	.	.	.	.
4D/	.	.	.	1A	San-	.	.
4C/	.	.	.	.	.	4e/	.
1D	.	.	.	.	.	4d/	.
.	.	.	.	.	.	4e/	.
=4	=4	=4	=4	=4	=4	=4	=4
*	*	*	*	*2\right	*	*	*
.	.	0r	.	2d\	-gui-	2.f\	.
2BB-X/	-pri-	.	.	2d\	-ne	.	.
.	.	.	.	.	.	4g\	-pri-
2AA/	-o	.	.	2.f\	pro-	1a	-o
2.D/	ſan-	.	.	.	.	.	.
*	*	*	*	*4\right	*	*	*
.	.	.	.	4e\	.	.	.
=5	=5	=5	=5	=5	=5	=5	=5
.	.	0r	.	4d\	.	1r	.
4E\	-gui-	.	.	4c\	.	.	.
2F\	-ne	.	.	1d	.	.	.
2.G\	p(ro)-	.	.	.	.	1d	San-
.	.	.	.	2B-X\	-pri-	.	.
4G\	-pri-	.	.	.	.	.	.
=6	=6	=6	=6	=6	=6	=6	=6
2F\	-o	1D	San-	2A/	-o	2a\	-gui-
2.A\	pro-	.	.	1f	pro-	2a\	-ne
.	.	1A	-gui-	.	.	2.cc\	pro-
4B\	.	.	.	.	.	.	.
2.c\	.	.	.	4e\	.	.	.
.	.	.	.	4d\	.	4b\	.
=7	=7	=7	=7	=7	=7	=7	=7
.	.	1A	-ne	2.e\	.	4a\	.
*custos:A	*	*	*	*	*	*	*
!LO:LB:g=original	!	!	!	!	!	!	!
4B\	.	.	.	.	.	4g\	.
4A\	.	.	.	.	.	1a	.
4G\	.	.	.	4e\	-pri-	.	.
4F\	.	1c	pro-	2f\	-o	.	.
4G\	.	.	.	.	.	.	.
2.A\	.	.	.	2.c\	san-	2f\	.
=8	=8	=8	=8	=8	=8	=8	=8
*	*	*	*	*	*	*custos:d	*
!	!	!	!	!	!	!LO:LB:g=original	!
.	.	1A	-pri-	.	.	2e/	.
4G\	.	.	.	4c\	-gui-	.	.
4F\	.	.	.	2d\	-ne	1d	.
8G\L	.	.	.	.	.	.	.
8F\J	.	.	.	.	.	.	.
2.E\	.	1G	-o	2.e\	pro-	.	.
.	.	.	.	.	.	2c#X/	-pri-
4E\	-pri-	.	.	4e\	-pri-	.	.
=9	=9	=9	=9	=9	=9	=9	=9
*	*	*	*	*custos:d	*	*	*
!	!	!	!	!LO:LB:g=original	!	!	!
1D	-o	1A	re-	2A/	-o	2d/	-o
.	.	.	.	1d	re-	1f	re-
1r	.	1G	-de-	.	.	.	.
.	.	.	.	4c\	.	2e/	-de-
.	.	.	.	4B-X\	.	.	.
=10	=10	=10	=10	=10	=10	=10	=10
2r	.	1F	-mi-	4A/	.	2f\	-mi-
.	.	.	.	4G/	.	.	.
1D	re-	.	.	2A/	.	2d/	-ſti
.	.	1E	-ſti	2B\	-de-	1e	nos
2C/	-de-	.	.	2c\	-miſ-	.	.
=11	=11	=11	=11	=11	=11	=11	=11
1D	-mi-	1F	nos	2A/	-ti	2.d/	De-
.	.	.	.	2f\	.	.	.
.	.	.	.	.	.	8c/L	.
.	.	.	.	.	.	8d/J	.
2C/	-ſti	1G	De-	4e\	nos	4e/	.
.	.	.	.	4d\	De-	4f\	.
2BB-X/	nos	.	.	1d	.	2.g\	.
=12	=12	=12	=12	=12	=12	=12	=12
1AA	De-	0A	-us.	.	.	.	.
.	.	.	.	.	.	4f\	.
.	.	.	.	2c#X\	.	2e/	.
0D	-us	.	.	4d\	-us	2d/	-us
.	.	.	.	4d\	Il-	.	.
.	.	.	.	4d\	-luc	2a\	Il-
.	.	.	.	4e\	et	.	.
=13	=13	=13	=13	=13	=13	=13	=13
.	.	1D	Il-	2.f\	re-	2a\	-luc
.	.	.	.	.	.	2b\	et
.	.	.	.	8e\L	.	.	.
.	.	.	.	8d\J	.	.	.
1r	.	1A	-luc	4e\	.	2.cc\	re-
.	.	.	.	4f\	.	.	.
.	.	.	.	4e\	.	.	.
.	.	.	.	4d\	.	4b\	.
=14	=14	=14	=14	=14	=14	=14	=14
1r	.	1A	et	4c\	.	4a\	.
.	.	.	.	4B\	.	4g\	.
.	.	.	.	1A	.	2f\	-ue-
2r	.	1c	re-	.	.	2e/	-bis
2AA/	Il-	.	.	2f\	-ue	1a	re-
=15	=15	=15	=15	=15	=15	=15	=15
*	*	*custos:G	*	*	*	*	*
!	!	!LO:LB:g=original	!	!	!	!	!
2AA/	-luc	1A	-ue	2e\	his	.	.
2BB/	et	.	.	2d\	il-	4g\	.
.	.	.	.	.	.	4f\	.
2.C/	re-	1G	his	2c\	-luc	4e/	.
.	.	.	.	.	.	4d/	.
.	.	.	.	2.c\	et	1e	.
4BB/	.	.	.	.	.	.	.
=16	=16	=16	=16	=16	=16	=16	=16
4AA/	.	1A	Un-	.	.	.	.
4GG/	.	.	.	4B\	.	.	.
2FF/	-ue	.	.	2A/	.	2f\	-ue-
*	*	*	*	*	*	*custos:e	*
!	!	!	!	!	!	!LO:LB:g=original	!
2EE/	his	1G	-de	2.B\	re-	2g\	-bis
2E\	Un-	.	.	.	.	2e/	Un-
.	.	.	.	8A/L	.	.	.
*	*	*	*	*custos:A	*	*	*
!	!	!	!	!LO:LB:g=original	!	!	!
.	.	.	.	8G/J	.	.	.
=17	=17	=17	=17	=17	=17	=17	=17
*custos:AA	*	*	*	*	*	*	*
!LO:LB:g=original	!	!	!	!	!	!	!
2D/	-de	1F	pri-	2.A/	.	2f\	-de
2.AA/	pri-	.	.	.	.	2.c/	pri-
.	.	.	.	4B\	-ue	.	.
.	.	1E	-mus	2c\	his	.	.
4BB/	.	.	.	.	.	4d/	.
1C	.	.	.	2.G/	Un-	2.e/	.
=18	=18	=18	=18	=18	=18	=18	=18
.	.	1G	cor-	.	.	.	.
.	.	.	.	4A/	-de	8d/L	.
.	.	.	.	.	.	8c/J	.
2BB-X/	-mus	.	.	2B-X\	pri-	2d/	.
2AA/	cor-	1A	-ru-	2c\	-mus	2c/	-mus
4GG/	.	.	.	1c	cor-	1f	cor-
4FF/	.	.	.	.	.	.	.
=19	=19	=19	=19	=19	=19	=19	=19
2.C/	.	1G	-it	.	.	.	.
.	.	.	.	2c\	-ru-	2e/	-ru-
4C/	-ru-	.	.	.	.	.	.
2FF/	-it	1F	pa-	2A,/	-it	2f\	-it
2F\	Un-	.	.	2.c\	Un-	2a\	Un-
=20	=20	=20	=20	=20	=20	=20	=20
2C/	-de	1G	-ra-	.	.	2g\	-de
.	.	.	.	4d\	-de	.	.
1C	pri-	.	.	1e	pri-	1g	pri-
.	.	1E	-di-	.	.	.	.
2AA/	-mus	.	.	2c#X\	-mus	2a\	-mus
=21	=21	=21	=21	=21	=21	=21	=21
2.D/	cor-	1D	-si-	2.d\	cor-	2.f#X\	cor-
4BB-X/	-ru-	.	.	4D/	-ru-	4g\	-ru-
2AA/	-it	1C	-co-	2E/	-it	2a,\	-it
2AA/	pa-	.	.	2F#X/	pa-	2a\	pa-
=22	=22	=22	=22	=22	=22	=22	=22
2GG/	-ra-	0D	-la.	2G/	-ra-	2b-X\	-ra-
2FF#X/	-di-	.	.	2A\	-di-	2a\	-di-
2.GG/	-si-	.	.	2.B-X\	-ſi	2.g\	-ſi
4GG/	-co-	.	.	4B-\	co-	4g\	so-
=23	=23	=23	=23	=23	=23	=23	=23
0D	-la.	1D	Ju-	2A/	-la.	1f#X	-la
.	.	.	.	2A/	Ju-	.	.
.	.	1A	-dex	2d\	-dex	2r	.
.	.	.	.	2f\	du(m)	2d/	Ju-
=24	=24	=24	=24	=24	=24	=24	=24
*	*	*	*	*	*	*custos:cc	*
!	!	!	!	!	!	!LO:LB:g=original	!
1r	.	1A	du(m)	1.e	ve-	2a\	-dex
.	.	.	.	.	.	2.cc\	dum
2r	.	1c	Ve-	.	.	.	.
.	.	.	.	.	.	4b\	.
2AA/	Ju-	.	.	2e\	-ne-	4a\	.
.	.	.	.	.	.	4g\	.
=25	=25	=25	=25	=25	=25	=25	=25
*	*	*	*	*custos:A	*	*	*
!	!	!	!	!LO:LB:g=original	!	!	!
2D/	-dex	1A	-ne-	2d\	-ris	2f\	ve-
*custos:E	*	*	*	*	*	*	*
!LO:LB:g=original	!	!	!	!	!	!	!
2F\	dum	.	.	2A/	iu-	4e/	.
.	.	.	.	.	.	4d/	.
2.E\	ve-	1G	-ris	2c\	-dex	4e/	.
.	.	.	.	.	.	4f\	.
.	.	.	.	2B\	dum	4g\	.
4D/	.	.	.	.	.	4f\	.
=26	=26	=26	=26	=26	=26	=26	=26
4C/	.	1A	iu-	1.c	Ve-	4e/	.
4BB/	.	.	.	.	.	4d/	.
4AA/	.	.	.	.	.	1e	.
4BB/	.	.	.	.	.	.	.
4C/	.	1G	-di-	.	.	.	.
4D/	.	.	.	.	.	.	.
4E\	.	.	.	2c\	-ne-	2e/	-ne-
4C/	.	.	.	.	.	.	.
=27	=27	=27	=27	=27	=27	=27	=27
2.D/	.	1F	-ca-	2.A/	-ris	2f\	-ris
.	.	.	.	.	.	4e/	.
4D/	-ne-	.	.	4B\	.	4d/	.
*	*	*custos:F	*	*	*	*	*
!	!	!LO:LB:g=original	!	!	!	!	!
1AA	-ris	1E	-re	4c\	.	4c/	.
.	.	.	.	4B\	.	4d/	.
.	.	.	.	1A	.	2e/	.
=28	=28	=28	=28	=28	=28	=28	=28
2D/	iu-	1F	ſae-	.	.	2.d/	iu-
2D/	-di-	.	.	2f\	iu-	.	.
.	.	.	.	.	.	8c/L	.
.	.	.	.	.	.	8d/J	.
2C/	-ca-	1G	-cu-	2e\	-di-	4e/	.
.	.	.	.	.	.	4f\	-di-
2BB-X/	-re	.	.	2d\	-ca-	1g	-ca-
=29	=29	=29	=29	=29	=29	=29	=29
*lig	*	*	*	*	*	*	*
1AA	ſae-	0A	-lum.	2c#X\	-re	.	.
.	.	.	.	1d	ſae-	2f\	-re
1.A	.	.	.	.	.	2.e/	ſae-
.	.	.	.	2c#\	-cu-	.	.
.	.	.	.	.	.	4e/	-cu-
*Xlig	*	*	*	*	*	*	*
=30	=30	=30	=30	=30	=30	=30	=30
.	.	1D	Da	2d\	-lum	1f#X	-lum
2A\	-cu-	.	.	4r	.	.	.
.	.	.	.	4d\	Da	.	.
1D	-lum	1A	no-	4d\	no-	4r	.
.	.	.	.	4e\	-bis	4a\	da
.	.	.	.	1f	q(uae)-	4a\	no-
*	*	*	*	*	*	*custos:cc	*
!	!	!	!	!	!	!LO:LB:g=original	!
.	.	.	.	.	.	4b\	-bis
=31	=31	=31	=31	=31	=31	=31	=31
0r	.	1A	-bis	.	.	2.cc\	quae-
.	.	.	.	2e\	-ſu-	.	.
.	.	.	.	.	.	8b\L	.
.	.	.	.	.	.	8a\J	.
.	.	1c	q(uae)-	1e,	-mus	4g\	.
.	.	.	.	.	.	4f\	.
.	.	.	.	.	.	1e	.
=32	=32	=32	=32	=32	=32	=32	=32
4r	.	1A	-ſu-	2.c\	q(uae)-	.	.
4AA/	Da	.	.	.	.	.	.
4AA/	no-	.	.	.	.	2f\	-ſu-
4BB/	-bis	.	.	4d\	.	.	.
2.C/	.	1G	-mus	4e\	.	2e/	-mus
.	.	.	.	4d\	.	.	.
.	.	.	.	2.c\	.	1e	q(uae)-
4BB/	quae-	.	.	.	.	.	.
=33	=33	=33	=33	=33	=33	=33	=33
4AA/	.	1A	ſem-	.	.	.	.
4GG/	.	.	.	4B\	-ſu-	.	.
2FF/	-ſu-	.	.	2A/	-mus	2f\	-ſu-
2EE/	-mus	1G	-pi-	2.B\	ſem-	2g\	-mus
2E\	ſem-	.	.	.	.	2e/	ſem-
.	.	.	.	8A/L	.	.	.
*	*	*	*	*custos:A	*	*	*
!	!	!	!	!LO:LB:g=original	!	!	!
.	.	.	.	8G/J	.	.	.
=34	=34	=34	=34	=34	=34	=34	=34
2D/	-pi-	1F	-ter-	2.A/	.	2f\	-pi-
2.AA/	-ter-	.	.	.	.	2.c/	-ter-
.	.	.	.	4B\	.	.	.
.	.	1E	-nam	2c\	-pi-	.	.
*custos:C	*	*	*	*	*	*	*
!LO:LB:g=original	!	!	!	!	!	!	!
4BB/	.	.	.	.	.	4d/	.
1C	.	.	.	2.G/	-ter-	2.e/	.
=35	=35	=35	=35	=35	=35	=35	=35
.	.	1G	re-	.	.	.	.
.	.	.	.	4A\	.	8d/L	.
.	.	.	.	.	.	8c/J	.
2BB-X/	-nam	.	.	2B-X\	.	2d/	.
2AA/	re-	1A	-qui-	2c\	-nam	2c/	-nam
4GG/	.	.	.	1c	re-	1f	re-
4FF/	.	.	.	.	.	.	.
=36	=36	=36	=36	=36	=36	=36	=36
2.C/	.	1G	-em	.	.	.	.
.	.	.	.	2c\	-q(ui)-	2e/	-qui-
4C/	-qui-	.	.	.	.	.	.
2FF/	-em	1F	in	2A/	-em	2f\	-em
1BB-X	in	.	.	1d	in	1d	in
=37	=37	=37	=37	=37	=37	=37	=37
.	.	1G	ſan-	.	.	.	.
2GG/	ſan-	.	.	2B-X\	ſan-	2d/	ſan-
*lig	*	*	*	*	*	*lig	*
1AA	-cto-	1E	-cto-	2.A/	-cto-	1c#X	-cto-
.	.	.	.	4G/	.	.	.
=38	=38	=38	=38	=38	=38	=38	=38
1BB-X	.	1D,	-ru(m)	2F/	.	1d	.
.	.	.	.	2B-X\	-rum	.	.
*Xlig	*	*	*	*	*	*Xlig	*
1AA	-ru(m)	1C	pa-	2c\	pa-	2e/	-rum
.	.	.	.	4B-\	.	2f#X\	.
.	.	.	.	4A/	.	.	.
=39	=39	=39	=39	=39	=39	=39	=39
2.GG/	pa-	1D	-tri-	2.B-X\	.	2.g\	pa-
*	*	*	*	*	*	*custos:f#	*
!	!	!	!	!	!	!LO:LB:g=original	!
4GG/	-tri-	.	.	4B-\	-tri-	4g\	-tri-
*	*	*custos:C	*	*	*	*	*
!	!	!LO:LB:g=original	!	!	!	!	!
1D	-a	1D	-a	2A/	-a	2f#X\	-a
.	.	.	.	2A/	in	1a	In
=40	=40	=40	=40	=40	=40	=40	=40
1AA	in	1C	In	1c	qua	.	.
.	.	.	.	.	.	1cc	qua
1C	qua	1E	qua	2.G/	ti-	.	.
.	.	.	.	.	.	2.g\	ti-
.	.	.	.	4A\	.	.	.
=41	=41	=41	=41	=41	=41	=41	=41
2.GG/	ti-	1G	ti-	4B-X\	.	.	.
.	.	.	.	4c\	.	4a\	.
.	.	.	.	2.d\	.	1b-X	.
4AA/	.	.	.	.	.	.	.
4BB-X/	.	1F	-bi	.	.	.	.
4C/	.	.	.	4e\	.	.	.
*	*	*	*	*custos:e	*	*	*
!	!	!	!	!LO:LB:g=original	!	!	!
2D/	.	.	.	2f\	.	2.a\	-bi
=42	=42	=42	=42	=42	=42	=42	=42
*	*	*lig	*	*	*	*	*
2C/	-bi	1G	ca-	2e\	-bi	.	.
.	.	.	.	.	.	4g\	.
2BB-X/	ca-	.	.	2d\	ca-	2g\	ca-
0AA	-na-	1A	.	2.c\	-na-	2f\	-na-
.	.	.	.	.	.	4e/	.
.	.	.	.	4B\	.	4d/	.
*	*	*Xlig	*	*	*	*	*
=43	=43	=43	=43	=43	=43	=43	=43
.	.	1E	-na-	4A/	.	4c#X/	.
.	.	.	.	8G/L	.	2d/	.
.	.	.	.	8F/J	.	.	.
.	.	.	.	2E/	.	.	.
.	.	.	.	.	.	4c#/	.
2D/	-mus	1D	-mus	2F#X/	-mus	2d/	-mus
2BB/	Al-	.	.	2.G/	Al-	2d/	A-
=44	=44	=44	=44	=44	=44	=44	=44
*custos:C	*	*	*	*	*	*	*
!LO:LB:g=original	!	!	!	!	!	!	!
2C/	-le-	1C	Al-	.	.	2.e/	-lle-
.	.	.	.	4G/	-le-	.	.
1C	-lu-	.	.	2G/	-lu-	.	.
.	.	.	.	.	.	4f\	.
.	.	1E	-le-	1C	-ia	2g\	-lu-
2.AA'/	-ia	.	.	.	.	2a\	-ia
=45	=45	=45	=45	=45	=45	=45	=45
*	*	*lig	*	*	*	*	*
.	.	1E	-lu-	1c	Al-	2cc\	Al-
4BB/	.	.	.	.	.	.	.
1C	Al-	.	.	.	.	2.g\	-le-
.	.	1G	.	2.G/	-le-	.	.
.	.	.	.	.	.	4a\	.
2.GG/	-le-	.	.	.	.	1b-X	.
.	.	.	.	4A/	.	.	.
*	*	*Xlig	*	*	*	*	*
=46	=46	=46	=46	=46	=46	=46	=46
.	.	[0D	-ia.	1B-X	.	.	.
4AA/	.	.	.	.	.	.	.
1BB-X	.	.	.	.	.	2.f\	-lu-
.	.	.	.	2.F/	-lu-	.	.
.	.	.	.	.	.	4g\	.
*	*	*	*	*	*	*custos:d	*
!	!	!	!	!	!	!LO:LB:g=original	!
2FF/	.	.	.	.	.	2a\	.
.	.	.	.	8G/L	.	.	.
.	.	.	.	8A/J	.	.	.
=47	=47	=47	=47	=47	=47	=47	=47
0GG	-lu-	0D_	.	4B-X\	.	2d/	-ia
.	.	.	.	4c\	.	.	.
.	.	.	.	2.d\	.	2.b-X\	Al-
.	.	.	.	4c\	.	4a\	-le-
.	.	.	.	1B-	.	1g	-lu-
=48	=48	=48	=48	=48	=48	=48	=48
0D	-ia.	0D]	.	.	.	.	.
.	.	.	.	4A/	.	4f#X\	.
.	.	.	.	4G/	.	4e/	.
.	.	.	.	1A	-ia	1f#	-ia
==	==	==	==	==	==	==	==
*-	*-	*-	*-	*-	*-	*-	*-
!!!system-decoration: s1,s2,s3,s4
!!!ENC:
!!!END:
!!!ENC: Andrzej Gręziak
!!!END: 2022-01-06
